flaticon/pins-and-locations/map.svg

<svg xmlns="http://www.w3.org/2000/svg" width="32" height="32" viewBox="0 0 24 24">
    <path d="M 23.601562 0 L 0.398438 0 C 0.160156 0 0 0.160156 0 0.398438 L 0 23.601562 C 0 23.839844 0.160156 24 0.398438 24 L 23.601562 24 C 23.839844 24 24 23.839844 24 23.601562 L 24 0.398438 C 24 0.160156 23.839844 0 23.601562 0 Z M 9.398438 0.800781 L 19.921875 0.800781 L 9.398438 11.320312 Z M 5.160156 0.800781 L 5.160156 5.160156 L 0.800781 5.160156 L 0.800781 0.800781 Z M 0.800781 9.398438 L 5.160156 9.398438 L 5.160156 15.558594 L 0.800781 19.921875 Z M 0.800781 23.199219 L 0.800781 21.039062 L 5.839844 16 C 5.921875 15.921875 5.960938 15.839844 5.960938 15.71875 L 5.960938 9 C 5.960938 8.761719 5.800781 8.601562 5.558594 8.601562 L 0.800781 8.601562 L 0.800781 5.960938 L 5.558594 5.960938 C 5.800781 5.960938 5.960938 5.800781 5.960938 5.558594 L 5.960938 0.800781 L 8.601562 0.800781 L 8.601562 12.28125 C 8.601562 12.441406 8.679688 12.558594 8.839844 12.640625 C 9 12.71875 9.160156 12.679688 9.28125 12.558594 L 21.039062 0.800781 L 23.199219 0.800781 L 23.199219 2.960938 L 18.839844 7.359375 C 18.761719 7.441406 18.71875 7.519531 18.71875 7.640625 C 18.71875 7.761719 18.761719 7.839844 18.839844 7.921875 L 23.199219 12.160156 L 23.199219 16.640625 L 16.601562 10.121094 C 16.441406 9.960938 16.199219 9.960938 16.039062 10.121094 L 2.960938 23.199219 Z M 23.199219 4.085938 L 23.199219 11.058594 L 19.679688 7.640625 Z M 4.078125 23.199219 L 16.320312 10.960938 L 23.199219 17.761719 L 23.199219 23.199219 Z M 4.078125 23.199219"/>
</svg>

<svg xmlns="http://www.w3.org/2000/svg" width="32" height="32" viewBox="0 0 24 24">
    <path d="M23.602 0H.398C.16 0 0 .16 0 .398v23.204c0 .238.16.398.398.398h23.204c.238 0 .398-.16.398-.398V.398C24 .16 23.84 0 23.602 0zM9.398.8h10.524L9.398 11.32zM5.16.8v4.36H.8V.8zM.8 9.399h4.36v6.16L.8 19.923zM.8 23.2v-2.16L5.84 16a.356.356 0 0 0 .12-.281V9c0-.238-.16-.398-.401-.398H.8V5.96h4.758c.242 0 .402-.16.402-.402V.8H8.6v11.48c0 .16.079.278.239.36.16.078.32.039.441-.082L21.04.8h2.16v2.16l-4.36 4.398a.375.375 0 0 0-.12.282c0 .12.043.199.12.28l4.36 4.24v4.48l-6.597-6.52a.39.39 0 0 0-.563 0L2.961 23.2zM23.2 4.086v6.973L19.68 7.64zM4.077 23.199L16.32 10.961l6.88 6.8V23.2zm0 0"/>
</svg>
